!!!OTL: Waldvögelein (3-57), S. 166
!!!id: P1029
**kern
*clefG2
*k[]
*G:
{8g
8a
=1
8b
8b
4b
4b
4b
=2
4a
4b
4dd}
=3
{8cc
8b
=4
8a
8a
4a
4a
4a
=5
4g
4a
4b}
=6
{8g
8b
=7
4dd
4dd
4cc
4dd
=8
4.b
8a
4b}
=9
{8cc
8ee
=10
4dd
4dd
4cc
8dd
8cc
=11
2b}
4r
==
*-
!!!minrhy: 8
!!!meters: 4/4 ]  ZZ[4
!!!cut: Waldvögelein (3-57), S. 166
!!!reg: Lothringen
!!!trd: PINCK, Louis: Verklingende Weisen, Bd3, Metz 1933
!!!rhy1: XX  XXX_X_X_  X_X_X_
!!!rhy2: XX  XXX_X_X_  X_X_X_
!!!key: P1029  08  G 4/4 ]  ZZ[4
!!!mod: SECHSTONSKALA DUR ?]  AMBITUS[6
!!!kad: 5333
!!!akz: 3325_2213_5433_543_
!!!fot: 'a__as"b__bv_
!!!for: 'a__a__b__c__
!!!fok: '/__Vd_^a_\__
!! PHRAS[AUFTAKTIG]
!!!fkt: verlorene Liebe
!! LOTH VKL
!! PR[8] 2K[4] 2G[10] 3K[2] 3G[6] 4A[10] 4Ü[0] 5A[2] 6K[0] 6G[0]
!! 7K[0] 7G[0] 8A[0] MEHR[0] SI[33] ABS[51] SR[14] SP[20]
!! ST[12] 2k[10] 2g[37] 3k[6] 3g[2] 4d[4] 4ü[0] 5d[0] 6k[0] 6g[0]
!! 7k[0] 7g[0] 8d[0] mehr[0] si[59] dm[-26] sr[47] sp[12]
!! 1F[46] 2F[42] 3F[2] 4F[0] LF[0] 2P[4] 3P[6] 4P[0] TRI[0] DF[5] AB[52]
!! TF[0] U3K[0] U3[0] U4[0] U4Ü[0] U5[0] U6K[0] U6[0] U7K[0] U7[4]
!! N1[17] N2K[0] N2[17] N3K[0] N3[23] N4[6] N4Ü[0] N5[21] N6K[0] N6[10]
!!!n7k: 0] N7[0] O1[2] O2K[0] O2[0] O3K[0] O3[0] HÖ[0
